flaticon/web-design/image.svg

<svg xmlns="http://www.w3.org/2000/svg" width="32" height="32" viewBox="0 0 24 24">
    <path d="M 23.417969 0 L 0.582031 0 C 0.371094 0 0.203125 0.167969 0.203125 0.378906 L 0.203125 23.621094 C 0.203125 23.832031 0.371094 24 0.582031 24 L 23.417969 24 C 23.628906 24 23.796875 23.832031 23.796875 23.621094 L 23.796875 0.378906 C 23.796875 0.167969 23.628906 0 23.417969 0 Z M 23.039062 23.242188 L 0.960938 23.242188 L 0.960938 20.96875 L 23.039062 20.96875 Z M 23.039062 20.210938 L 0.960938 20.210938 L 0.960938 19.292969 L 6.847656 10.9375 L 13.007812 19.496094 C 13.070312 19.585938 13.167969 19.640625 13.277344 19.652344 C 13.386719 19.664062 13.492188 19.625 13.574219 19.550781 L 18.363281 15.050781 L 23.039062 19.539062 Z M 23.039062 18.488281 L 18.628906 14.253906 C 18.484375 14.113281 18.253906 14.113281 18.105469 14.25 L 13.367188 18.703125 L 7.152344 10.0625 C 7.082031 9.960938 6.96875 9.902344 6.847656 9.902344 C 6.84375 9.902344 6.84375 9.902344 6.84375 9.902344 C 6.722656 9.902344 6.605469 9.964844 6.535156 10.0625 L 0.960938 17.980469 L 0.960938 0.757812 L 23.039062 0.757812 Z M 23.039062 18.488281"/>
    <path d="M15.738281 7.277344C13.96875 7.277344 12.53125 8.714844 12.53125 10.484375 12.53125 12.253906 13.96875 13.691406 15.738281 13.691406 17.507812 13.691406 18.949219 12.253906 18.949219 10.484375 18.949219 8.714844 17.507812 7.277344 15.738281 7.277344zM15.738281 12.933594C14.386719 12.933594 13.289062 11.835938 13.289062 10.484375 13.289062 9.132812 14.386719 8.035156 15.738281 8.035156 17.089844 8.035156 18.191406 9.132812 18.191406 10.484375 18.191406 11.835938 17.089844 12.933594 15.738281 12.933594zM19.984375 2.628906C19.496094 2.628906 19.0625 2.84375 18.769531 3.1875 18.476562 2.84375 18.042969 2.628906 17.558594 2.628906 17.074219 2.628906 16.636719 2.84375 16.34375 3.1875 16.054688 2.84375 15.617188 2.628906 15.132812 2.628906 14.253906 2.628906 13.539062 3.339844 13.539062 4.21875 13.539062 4.429688 13.710938 4.597656 13.921875 4.597656 14.128906 4.597656 14.300781 4.429688 14.300781 4.21875 14.300781 3.757812 14.671875 3.386719 15.132812 3.386719 15.59375 3.386719 15.964844 3.757812 15.964844 4.21875 15.964844 4.429688 16.136719 4.597656 16.34375 4.597656 16.554688 4.597656 16.722656 4.429688 16.722656 4.21875 16.722656 3.757812 17.097656 3.386719 17.558594 3.386719 18.015625 3.386719 18.390625 3.757812 18.390625 4.21875 18.390625 4.429688 18.5625 4.597656 18.769531 4.597656 18.980469 4.597656 19.148438 4.429688 19.148438 4.21875 19.148438 3.757812 19.523438 3.386719 19.984375 3.386719 20.441406 3.386719 20.816406 3.757812 20.816406 4.21875 20.816406 4.429688 20.988281 4.597656 21.195312 4.597656 21.40625 4.597656 21.574219 4.429688 21.574219 4.21875 21.574219 3.339844 20.859375 2.628906 19.984375 2.628906zM6.847656 5.859375C6.359375 5.859375 5.925781 6.078125 5.632812 6.421875 5.339844 6.078125 4.90625 5.859375 4.421875 5.859375 3.542969 5.859375 2.828125 6.574219 2.828125 7.453125 2.828125 7.660156 3 7.832031 3.207031 7.832031 3.417969 7.832031 3.585938 7.660156 3.585938 7.453125 3.585938 6.992188 3.960938 6.617188 4.421875 6.617188 4.878906 6.617188 5.253906 6.992188 5.253906 7.453125 5.253906 7.660156 5.425781 7.832031 5.632812 7.832031 5.84375 7.832031 6.011719 7.660156 6.011719 7.453125 6.011719 6.992188 6.386719 6.617188 6.847656 6.617188 7.304688 6.617188 7.679688 6.992188 7.679688 7.453125 7.679688 7.660156 7.847656 7.832031 8.058594 7.832031 8.269531 7.832031 8.4375 7.660156 8.4375 7.453125 8.4375 6.574219 7.722656 5.859375 6.847656 5.859375zM6.847656 5.859375"/>
</svg>

<svg xmlns="http://www.w3.org/2000/svg" width="32" height="32" viewBox="0 0 24 24">
    <path d="M23.418 0H.582a.377.377 0 0 0-.379.379V23.62c0 .211.168.379.379.379h22.836c.21 0 .379-.168.379-.379V.38A.377.377 0 0 0 23.418 0zm-.379 23.242H.961V20.97h22.078zm0-3.031H.961v-.918l5.887-8.355 6.16 8.558c.062.09.16.145.27.156a.38.38 0 0 0 .296-.101l4.79-4.5 4.675 4.488zm0-1.723l-4.41-4.234a.381.381 0 0 0-.524-.004l-4.738 4.453-6.215-8.64a.37.37 0 0 0-.304-.16h-.004a.387.387 0 0 0-.309.16L.961 17.98V.758h22.078zm0 0"/>
    <path d="M15.738 7.277a3.21 3.21 0 0 0-3.207 3.207 3.21 3.21 0 0 0 6.418 0 3.213 3.213 0 0 0-3.21-3.207zm0 5.657a2.45 2.45 0 0 1-2.449-2.45 2.45 2.45 0 0 1 4.902 0 2.454 2.454 0 0 1-2.453 2.45zm0 0M19.984 2.629c-.488 0-.922.215-1.214.558a1.584 1.584 0 0 0-1.211-.558c-.485 0-.922.215-1.215.558a1.592 1.592 0 0 0-2.805 1.031.38.38 0 0 0 .762 0 .83.83 0 0 1 .832-.831.83.83 0 0 1 .832.832.38.38 0 0 0 .758 0 .834.834 0 0 1 1.668 0 .38.38 0 0 0 .757 0 .834.834 0 0 1 1.668 0 .38.38 0 0 0 .758 0c0-.88-.715-1.59-1.59-1.59zm0 0M6.848 5.86a1.59 1.59 0 0 0-1.215.562 1.588 1.588 0 0 0-1.211-.563c-.879 0-1.594.715-1.594 1.594a.38.38 0 0 0 .758 0c0-.46.375-.836.836-.836.457 0 .832.375.832.836a.38.38 0 0 0 .758 0c0-.46.375-.836.836-.836.457 0 .832.375.832.836a.38.38 0 0 0 .758 0c0-.879-.715-1.594-1.59-1.594zm0 0"/>
</svg>
